dist/img/services-item-6.svg

<svg width="90" height="90" viewBox="0 0 90 90" fill="none" xmlns="http://www.w3.org/2000/svg">
<g clip-path="url(#clip0_21_575)">
<path d="M52.1023 28.0463C52.8955 28.0463 53.5385 27.4033 53.5385 26.6101C53.5385 25.817 52.8955 25.174 52.1023 25.174H51.9823V19.0092C51.9823 16.9099 50.2744 15.2018 48.1749 15.2018H5.36362C3.26432 15.2018 1.55623 16.9097 1.55623 19.0092V25.174H1.43617C0.643021 25.174 0 25.817 0 26.6101C0 27.4033 0.643021 28.0463 1.43617 28.0463H4.96915V31.4772L3.20706 32.4864C1.4086 33.5162 0 36.0772 0 38.317V83.8216C0 87.2284 2.77162 90 6.1786 90H47.3601C50.7671 90 53.5387 87.2284 53.5387 83.8214V38.317C53.5387 36.0774 52.1301 33.5162 50.3315 32.4864L48.5694 31.4774V28.0465L52.1023 28.0463ZM50.6662 83.8214C50.6662 85.6446 49.1831 87.1277 47.3599 87.1277H6.1786C4.35543 87.1277 2.87234 85.6446 2.87234 83.8214V80.5152H50.6662V83.8214ZM50.6662 77.643H2.87234V49.8432H50.6662V77.643ZM48.9041 34.9788C49.8263 35.5069 50.6662 37.0978 50.6662 38.3168V46.9708H2.87234V38.317C2.87234 37.098 3.71221 35.5071 4.63443 34.979L7.11919 33.5562C7.56594 33.3004 7.84168 32.8249 7.84168 32.31V28.0463H45.6972V32.31C45.6972 32.8249 45.9728 33.3004 46.4197 33.5562L48.9041 34.9788ZM4.42857 25.174V19.0092C4.42857 18.5023 4.85674 18.0741 5.36362 18.0741H11.0669V20.8655C11.0669 21.6586 11.71 22.3016 12.5031 22.3016C13.2963 22.3016 13.9393 21.6586 13.9393 20.8655V18.0741H20.5776V20.8655C20.5776 21.6586 21.2207 22.3016 22.0138 22.3016C22.807 22.3016 23.45 21.6586 23.45 20.8655V18.0741H30.0883V20.8655C30.0883 21.6586 30.7314 22.3016 31.5245 22.3016C32.3177 22.3016 32.9607 21.6586 32.9607 20.8655V18.0741H39.599V20.8655C39.599 21.6586 40.2421 22.3016 41.0352 22.3016C41.8284 22.3016 42.4714 21.6586 42.4714 20.8655V18.0741H48.1749C48.6818 18.0741 49.1099 18.5023 49.1099 19.0092V25.174H4.42857Z" fill="#0779FF"/>
<path d="M18.1775 72.4504H35.361C40.1623 72.4504 44.0683 68.5444 44.0683 63.7432C44.0683 58.942 40.1623 55.036 35.361 55.036H18.1775C13.3763 55.036 9.47034 58.942 9.47034 63.7432C9.47034 68.5444 13.3763 72.4504 18.1775 72.4504ZM28.2055 57.9084H35.361C38.5784 57.9084 41.1959 60.5258 41.1959 63.7432C41.1959 66.9606 38.5784 69.5781 35.361 69.5781H28.2055V57.9084ZM18.1775 57.9084H25.3331V69.5781H18.1775C14.9601 69.5781 12.3427 66.9606 12.3427 63.7432C12.3427 60.5258 14.9601 57.9084 18.1775 57.9084Z" fill="#0779FF"/>
<path d="M41.3886 30.8737H23.6394C22.8463 30.8737 22.2032 31.5167 22.2032 32.3098C22.2032 33.103 22.8463 33.746 23.6394 33.746H41.3886C42.1817 33.746 42.8247 33.103 42.8247 32.3098C42.8247 31.5167 42.1817 30.8737 41.3886 30.8737Z" fill="#0779FF"/>
<path d="M17.8947 30.8737H12.15C11.3569 30.8737 10.7139 31.5167 10.7139 32.3098C10.7139 33.103 11.3569 33.746 12.15 33.746H17.8947C18.6879 33.746 19.3309 33.103 19.3309 32.3098C19.3309 31.5167 18.6879 30.8737 17.8947 30.8737Z" fill="#0779FF"/>
<path d="M58.608 82.8191C58.608 83.6122 59.2511 84.2553 60.0442 84.2553C60.8374 84.2553 61.4804 83.6122 61.4804 82.8191V71.3297C61.4804 70.5366 60.8374 69.8936 60.0442 69.8936C59.2511 69.8936 58.608 70.5366 58.608 71.3297V82.8191Z" fill="#0779FF"/>
<path d="M60.0442 67.0212C60.8374 67.0212 61.4804 66.3782 61.4804 65.5851V7.1808C61.4804 6.38765 60.8374 5.74463 60.0442 5.74463C59.2511 5.74463 58.608 6.38765 58.608 7.1808V65.5851C58.608 66.3782 59.2511 67.0212 60.0442 67.0212Z" fill="#0779FF"/>
<path d="M79.1809 0H40.9075C34.9419 0 30.0884 4.85349 30.0884 10.8191C30.0884 11.6123 30.7314 12.2553 31.5245 12.2553C32.3177 12.2553 32.9607 11.6123 32.9607 10.8191C32.9607 6.4373 36.5257 2.87234 40.9075 2.87234H79.1809C83.5627 2.87234 87.1277 6.4373 87.1277 10.8191V79.1809C87.1277 83.5627 83.5627 87.1277 79.1809 87.1277H56.7324C55.9393 87.1277 55.2962 87.7707 55.2962 88.5638C55.2962 89.357 55.9393 90 56.7324 90H79.1809C85.1466 90 90 85.1465 90 79.1809V10.8191C90 4.85349 85.1466 0 79.1809 0Z" fill="#0779FF"/>
<path d="M74.304 22.5278C78.1698 22.5278 81.315 19.3828 81.315 15.5168C81.315 11.651 78.1699 8.50598 74.304 8.50598C70.438 8.50598 67.293 11.651 67.293 15.5168C67.293 19.3828 70.4382 22.5278 74.304 22.5278ZM74.304 11.3783C76.5859 11.3783 78.4426 13.2348 78.4426 15.5168C78.4426 17.7988 76.5861 19.6554 74.304 19.6554C72.0218 19.6554 70.1653 17.799 70.1653 15.5168C70.1653 13.2348 72.022 11.3783 74.304 11.3783Z" fill="#0779FF"/>
<path d="M74.304 42.1832C78.1698 42.1832 81.315 39.0382 81.315 35.1722C81.315 31.3064 78.1699 28.1614 74.304 28.1614C70.438 28.1614 67.293 31.3064 67.293 35.1722C67.293 39.0382 70.4382 42.1832 74.304 42.1832ZM74.304 31.0337C76.5859 31.0337 78.4426 32.8902 78.4426 35.1722C78.4426 37.4542 76.5861 39.3108 74.304 39.3108C72.0218 39.3108 70.1653 37.4544 70.1653 35.1722C70.1653 32.8902 72.022 31.0337 74.304 31.0337Z" fill="#0779FF"/>
<path d="M74.304 61.8386C78.1698 61.8386 81.315 58.6936 81.315 54.8278C81.315 50.962 78.1699 47.8168 74.304 47.8168C70.438 47.8168 67.293 50.9618 67.293 54.8278C67.293 58.6936 70.4382 61.8386 74.304 61.8386ZM74.304 50.6891C76.5859 50.6891 78.4426 52.5456 78.4426 54.8278C78.4426 57.1097 76.5861 58.9662 74.304 58.9662C72.0218 58.9662 70.1653 57.1097 70.1653 54.8278C70.1653 52.5456 72.022 50.6891 74.304 50.6891Z" fill="#0779FF"/>
<path d="M74.304 81.4941C78.1698 81.4941 81.315 78.3491 81.315 74.4833C81.315 70.6175 78.1699 67.4723 74.304 67.4723C70.438 67.4723 67.293 70.6173 67.293 74.4833C67.293 78.3491 70.4382 81.4941 74.304 81.4941ZM74.304 70.3446C76.5859 70.3446 78.4426 72.2011 78.4426 74.4833C78.4426 76.7653 76.5861 78.6218 74.304 78.6218C72.0218 78.6218 70.1653 76.7653 70.1653 74.4833C70.1653 72.2011 72.022 70.3446 74.304 70.3446Z" fill="#0779FF"/>
<path d="M43.4725 12.0835C44.1559 11.622 44.9554 11.3783 45.7846 11.3783C46.6308 11.3783 47.444 11.6314 48.1361 12.1105C48.3854 12.2831 48.6701 12.3658 48.952 12.3658C49.4074 12.3658 49.8554 12.1498 50.1342 11.7469C50.5856 11.0947 50.4228 10.2 49.7706 9.7485C48.596 8.93544 47.2175 8.50574 45.7846 8.50574C44.3804 8.50574 43.0252 8.91974 41.8654 9.70274C41.208 10.1466 41.0349 11.0391 41.4787 11.6967C41.9226 12.3543 42.8153 12.5274 43.4725 12.0835Z" fill="#0779FF"/>
</g>
<defs>
<clipPath id="clip0_21_575">
<rect width="90" height="90" fill="white"/>
</clipPath>
</defs>
</svg>

<svg width="90" height="90" fill="none" xmlns="http://www.w3.org/2000/svg"><g clip-path="url(#a)" fill="#0779FF"><path d="M52.102 28.046a1.436 1.436 0 1 0 0-2.872h-.12v-6.165a3.81 3.81 0 0 0-3.807-3.807H5.364a3.812 3.812 0 0 0-3.808 3.807v6.165h-.12a1.436 1.436 0 0 0 0 2.872H4.97v3.431l-1.762 1.01C1.41 33.516 0 36.076 0 38.316v45.505A6.185 6.185 0 0 0 6.179 90H47.36a6.185 6.185 0 0 0 6.179-6.179V38.317c0-2.24-1.409-4.8-3.208-5.83l-1.762-1.01v-3.43h3.533Zm-1.436 55.775a3.31 3.31 0 0 1-3.306 3.307H6.179a3.31 3.31 0 0 1-3.307-3.307v-3.306h47.794v3.306Zm0-6.178H2.872v-27.8h47.794v27.8Zm-1.762-42.664c.922.528 1.762 2.119 1.762 3.338v8.654H2.872v-8.654c0-1.219.84-2.81 1.762-3.338l2.485-1.423c.447-.256.723-.731.723-1.246v-4.264h37.855v4.264c0 .515.276.99.723 1.246l2.484 1.423ZM4.43 25.174v-6.165c0-.507.428-.935.935-.935h5.703v2.791a1.436 1.436 0 0 0 2.872 0v-2.79h6.639v2.79a1.436 1.436 0 0 0 2.872 0v-2.79h6.638v2.79a1.436 1.436 0 0 0 2.873 0v-2.79H39.6v2.79a1.436 1.436 0 0 0 2.872 0v-2.79h5.704c.507 0 .935.427.935.934v6.165H4.429Z"/><path d="M18.177 72.45h17.184c4.801 0 8.707-3.906 8.707-8.707s-3.906-8.707-8.707-8.707H18.178c-4.802 0-8.708 3.906-8.708 8.707s3.906 8.707 8.707 8.707Zm10.029-14.542h7.155a5.841 5.841 0 0 1 5.835 5.835 5.841 5.841 0 0 1-5.835 5.835h-7.155v-11.67Zm-10.029 0h7.156v11.67h-7.155a5.841 5.841 0 0 1-5.835-5.835 5.841 5.841 0 0 1 5.834-5.835Zm23.212-27.034h-17.75a1.436 1.436 0 0 0 0 2.872h17.75a1.436 1.436 0 0 0 0-2.872Zm-23.494 0H12.15a1.436 1.436 0 0 0 0 2.872h5.745a1.436 1.436 0 1 0 0-2.872ZM58.608 82.82a1.436 1.436 0 0 0 2.872 0V71.33a1.436 1.436 0 0 0-2.872 0v11.49Zm1.436-15.799c.793 0 1.436-.643 1.436-1.436V7.181a1.436 1.436 0 0 0-2.872 0v58.404c0 .793.643 1.436 1.436 1.436Z"/><path d="M79.18 0H40.908c-5.965 0-10.819 4.853-10.819 10.82a1.436 1.436 0 1 0 2.873 0c0-4.383 3.565-7.948 7.947-7.948H79.18c4.382 0 7.947 3.565 7.947 7.947v68.362c0 4.382-3.565 7.947-7.947 7.947H56.732a1.436 1.436 0 0 0 0 2.872h22.449C85.147 90 90 85.147 90 79.18V10.82C90 4.852 85.147 0 79.18 0Z"/><path d="M74.304 22.528a7.019 7.019 0 0 0 7.011-7.011 7.019 7.019 0 0 0-7.011-7.011 7.019 7.019 0 0 0-7.011 7.01 7.019 7.019 0 0 0 7.011 7.012Zm0-11.15a4.143 4.143 0 0 1 4.139 4.139 4.143 4.143 0 0 1-4.139 4.138 4.143 4.143 0 0 1-4.139-4.138 4.143 4.143 0 0 1 4.139-4.139Zm0 30.805a7.019 7.019 0 0 0 7.011-7.01 7.019 7.019 0 0 0-7.011-7.012 7.019 7.019 0 0 0-7.011 7.011 7.019 7.019 0 0 0 7.011 7.011Zm0-11.15a4.143 4.143 0 0 1 4.139 4.14 4.143 4.143 0 0 1-4.139 4.138 4.143 4.143 0 0 1-4.139-4.139 4.143 4.143 0 0 1 4.139-4.138Zm0 30.806a7.019 7.019 0 0 0 7.011-7.011 7.019 7.019 0 0 0-7.011-7.011 7.019 7.019 0 0 0-7.011 7.01 7.019 7.019 0 0 0 7.011 7.012Zm0-11.15a4.143 4.143 0 0 1 4.139 4.139 4.143 4.143 0 0 1-4.139 4.138 4.143 4.143 0 0 1-4.139-4.138 4.143 4.143 0 0 1 4.139-4.139Zm0 30.805a7.019 7.019 0 0 0 7.011-7.01 7.019 7.019 0 0 0-7.011-7.012 7.019 7.019 0 0 0-7.011 7.011 7.019 7.019 0 0 0 7.011 7.011Zm0-11.15a4.143 4.143 0 0 1 4.139 4.14 4.143 4.143 0 0 1-4.139 4.138 4.143 4.143 0 0 1-4.139-4.139 4.143 4.143 0 0 1 4.139-4.138Zm-30.832-58.26a4.115 4.115 0 0 1 2.313-.706c.846 0 1.659.253 2.351.732a1.434 1.434 0 0 0 1.998-.364 1.436 1.436 0 0 0-.363-1.998 6.972 6.972 0 0 0-3.986-1.242 6.98 6.98 0 0 0-3.92 1.197 1.436 1.436 0 0 0 1.607 2.38Z"/></g><defs><clipPath id="a"><path fill="#fff" d="M0 0h90v90H0z"/></clipPath></defs></svg>
